<?xml version="1.0" encoding="UTF-8"?>
<map version="1.10" tiledversion="1.11.2" orientation="orthogonal" renderorder="right-down" width="60" height="60" tilewidth="64" tileheight="64" infinite="0" nextlayerid="5" nextobjectid="203">
 <tileset firstgid="1" name="BaseTiles" tilewidth="64" tileheight="64" tilecount="2" columns="2">
  <image source="../images/BaseTiles.png" width="128" height="64"/>
 </tileset>
 <tileset firstgid="3" source="CityObjects.tsx"/>
 <layer id="1" name="Ground" width="60" height="60">
  <data encoding="csv">
2,2,2,2,2,2,2,2,2,2,2,2,2,2,2,2,2,2,2,2,2,2,2,2,2,2,2,2,2,2,2,2,2,2,2,2,2,2,2,2,2,2,2,2,2,2,2,2,2,2,2,2,2,2,2,2,2,2,2,2,
2,2,2,2,2,2,2,2,2,2,2,2,2,2,2,2,2,2,2,2,2,2,2,2,2,2,2,2,2,2,2,2,2,2,2,2,2,2,2,2,2,2,2,2,2,2,2,2,2,2,2,2,2,2,2,2,2,2,2,2,
2,2,1,1,1,1,1,1,1,1,1,1,2,2,1,1,1,1,1,1,1,1,1,1,2,2,1,1,1,1,1,1,1,1,1,1,2,2,1,1,1,1,1,1,1,1,1,1,2,2,1,1,1,1,1,1,1,1,1,1,
2,2,1,1,1,1,1,1,1,1,1,1,2,2,1,1,1,1,1,1,1,1,1,1,2,2,1,1,1,1,1,1,1,1,1,1,2,2,1,1,1,1,1,1,1,1,1,1,2,2,1,1,1,1,1,1,1,1,1,1,
2,2,1,1,1,1,1,1,1,1,1,1,2,2,1,1,1,1,1,1,1,1,1,1,2,2,1,1,1,1,1,1,1,1,1,1,2,2,1,1,1,1,1,1,1,1,1,1,2,2,1,1,1,1,1,1,1,1,1,1,
2,2,1,1,1,1,1,1,1,1,1,1,2,2,1,1,1,1,1,1,1,1,1,1,2,2,1,1,1,1,1,1,1,1,1,1,2,2,1,1,1,1,1,1,1,1,1,1,2,2,1,1,1,1,1,1,1,1,1,1,
2,2,1,1,1,1,1,1,1,1,1,1,2,2,1,1,1,1,1,1,1,1,1,1,2,2,1,1,1,1,1,1,1,1,1,1,2,2,1,1,1,1,1,1,1,1,1,1,2,2,1,1,1,1,1,1,1,1,1,1,
2,2,1,1,1,1,1,1,1,1,1,1,2,2,1,1,1,1,1,1,1,1,1,1,2,2,1,1,1,1,1,1,1,1,1,1,2,2,1,1,1,1,1,1,1,1,1,1,2,2,1,1,1,1,1,1,1,1,1,1,
2,2,1,1,1,1,1,1,1,1,1,1,2,2,1,1,1,1,1,1,1,1,1,1,2,2,1,1,1,1,1,1,1,1,1,1,2,2,1,1,1,1,1,1,1,1,1,1,2,2,1,1,1,1,1,1,1,1,1,1,
2,2,1,1,1,1,1,1,1,1,1,1,2,2,1,1,1,1,1,1,1,1,1,1,2,2,1,1,1,1,1,1,1,1,1,1,2,2,1,1,1,1,1,1,1,1,1,1,2,2,1,1,1,1,1,1,1,1,1,1,
2,2,1,1,1,1,1,1,1,1,1,1,2,2,1,1,1,1,1,1,1,1,1,1,2,2,1,1,1,1,1,1,1,1,1,1,2,2,1,1,1,1,1,1,1,1,1,1,2,2,1,1,1,1,1,1,1,1,1,1,
2,2,1,1,1,1,1,1,1,1,1,1,2,2,1,1,1,1,1,1,1,1,1,1,2,2,1,1,1,1,1,1,1,1,1,1,2,2,1,1,1,1,1,1,1,1,1,1,2,2,1,1,1,1,1,1,1,1,1,1,
2,2,2,2,2,2,2,2,2,2,2,2,2,2,2,2,2,2,2,2,2,2,2,2,2,2,2,2,2,2,2,2,2,2,2,2,2,2,2,2,2,2,2,2,2,2,2,2,2,2,2,2,2,2,2,2,2,2,2,2,
2,2,2,2,2,2,2,2,2,2,2,2,2,2,2,2,2,2,2,2,2,2,2,2,2,2,2,2,2,2,2,2,2,2,2,2,2,2,2,2,2,2,2,2,2,2,2,2,2,2,2,2,2,2,2,2,2,2,2,2,
2,2,1,1,1,1,1,1,1,1,1,1,2,2,1,1,1,1,1,1,1,1,1,1,2,2,1,1,1,1,1,1,1,1,1,1,2,2,1,1,1,1,1,1,1,1,1,1,2,2,1,1,1,1,1,1,1,1,1,1,
2,2,1,1,1,1,1,1,1,1,1,1,2,2,1,1,1,1,1,1,1,1,1,1,2,2,1,1,1,1,1,1,1,1,1,1,2,2,1,1,1,1,1,1,1,1,1,1,2,2,1,1,1,1,1,1,1,1,1,1,
2,2,1,1,1,1,1,1,1,1,1,1,2,2,1,1,1,1,1,1,1,1,1,1,2,2,1,1,1,1,1,1,1,1,1,1,2,2,1,1,1,1,1,1,1,1,1,1,2,2,1,1,1,1,1,1,1,1,1,1,
2,2,1,1,1,1,1,1,1,1,1,1,2,2,1,1,1,1,1,1,1,1,1,1,2,2,1,1,1,1,1,1,1,1,1,1,2,2,1,1,1,1,1,1,1,1,1,1,2,2,1,1,1,1,1,1,1,1,1,1,
2,2,1,1,1,1,1,1,1,1,1,1,2,2,1,1,1,1,1,1,1,1,1,1,2,2,1,1,1,1,1,1,1,1,1,1,2,2,1,1,1,1,1,1,1,1,1,1,2,2,1,1,1,1,1,1,1,1,1,1,
2,2,1,1,1,1,1,1,1,1,1,1,2,2,1,1,1,1,1,1,1,1,1,1,2,2,1,1,1,1,1,1,1,1,1,1,2,2,1,1,1,1,1,1,1,1,1,1,2,2,1,1,1,1,1,1,1,1,1,1,
2,2,1,1,1,1,1,1,1,1,1,1,2,2,1,1,1,1,1,1,1,1,1,1,2,2,1,1,1,1,1,1,1,1,1,1,2,2,1,1,1,1,1,1,1,1,1,1,2,2,1,1,1,1,1,1,1,1,1,1,
2,2,1,1,1,1,1,1,1,1,1,1,2,2,1,1,1,1,1,1,1,1,1,1,2,2,1,1,1,1,1,1,1,1,1,1,2,2,1,1,1,1,1,1,1,1,1,1,2,2,1,1,1,1,1,1,1,1,1,1,
2,2,1,1,1,1,1,1,1,1,1,1,2,2,1,1,1,1,1,1,1,1,1,1,2,2,1,1,1,1,1,1,1,1,1,1,2,2,1,1,1,1,1,1,1,1,1,1,2,2,1,1,1,1,1,1,1,1,1,1,
2,2,1,1,1,1,1,1,1,1,1,1,2,2,1,1,1,1,1,1,1,1,1,1,2,2,1,1,1,1,1,1,1,1,1,1,2,2,1,1,1,1,1,1,1,1,1,1,2,2,1,1,1,1,1,1,1,1,1,1,
2,2,2,2,2,2,2,2,2,2,2,2,2,2,2,2,2,2,2,2,2,2,2,2,2,2,2,2,2,2,2,2,2,2,2,2,2,2,2,2,2,2,2,2,2,2,2,2,2,2,2,2,2,2,2,2,2,2,2,2,
2,2,2,2,2,2,2,2,2,2,2,2,2,2,2,2,2,2,2,2,2,2,2,2,2,2,2,2,2,2,2,2,2,2,2,2,2,2,2,2,2,2,2,2,2,2,2,2,2,2,2,2,2,2,2,2,2,2,2,2,
2,2,1,1,1,1,1,1,1,1,1,1,2,2,1,1,1,1,1,1,1,1,1,1,2,2,1,1,1,1,1,1,1,1,1,1,2,2,1,1,1,1,1,1,1,1,1,1,2,2,1,1,1,1,1,1,1,1,1,1,
2,2,1,1,1,1,1,1,1,1,1,1,2,2,1,1,1,1,1,1,1,1,1,1,2,2,1,1,1,1,1,1,1,1,1,1,2,2,1,1,1,1,1,1,1,1,1,1,2,2,1,1,1,1,1,1,1,1,1,1,
2,2,1,1,1,1,1,1,1,1,1,1,2,2,1,1,1,1,1,1,1,1,1,1,2,2,1,1,1,1,1,1,1,1,1,1,2,2,1,1,1,1,1,1,1,1,1,1,2,2,1,1,1,1,1,1,1,1,1,1,
2,2,1,1,1,1,1,1,1,1,1,1,2,2,1,1,1,1,1,1,1,1,1,1,2,2,1,1,1,1,1,1,1,1,1,1,2,2,1,1,1,1,1,1,1,1,1,1,2,2,1,1,1,1,1,1,1,1,1,1,
2,2,1,1,1,1,1,1,1,1,1,1,2,2,1,1,1,1,1,1,1,1,1,1,2,2,1,1,1,1,1,1,1,1,1,1,2,2,1,1,1,1,1,1,1,1,1,1,2,2,1,1,1,1,1,1,1,1,1,1,
2,2,1,1,1,1,1,1,1,1,1,1,2,2,1,1,1,1,1,1,1,1,1,1,2,2,1,1,1,1,1,1,1,1,1,1,2,2,1,1,1,1,1,1,1,1,1,1,2,2,1,1,1,1,1,1,1,1,1,1,
2,2,1,1,1,1,1,1,1,1,1,1,2,2,1,1,1,1,1,1,1,1,1,1,2,2,1,1,1,1,1,1,1,1,1,1,2,2,1,1,1,1,1,1,1,1,1,1,2,2,1,1,1,1,1,1,1,1,1,1,
2,2,1,1,1,1,1,1,1,1,1,1,2,2,1,1,1,1,1,1,1,1,1,1,2,2,1,1,1,1,1,1,1,1,1,1,2,2,1,1,1,1,1,1,1,1,1,1,2,2,1,1,1,1,1,1,1,1,1,1,
2,2,1,1,1,1,1,1,1,1,1,1,2,2,1,1,1,1,1,1,1,1,1,1,2,2,1,1,1,1,1,1,1,1,1,1,2,2,1,1,1,1,1,1,1,1,1,1,2,2,1,1,1,1,1,1,1,1,1,1,
2,2,1,1,1,1,1,1,1,1,1,1,2,2,1,1,1,1,1,1,1,1,1,1,2,2,1,1,1,1,1,1,1,1,1,1,2,2,1,1,1,1,1,1,1,1,1,1,2,2,1,1,1,1,1,1,1,1,1,1,
2,2,2,2,2,2,2,2,2,2,2,2,2,2,2,2,2,2,2,2,2,2,2,2,2,2,2,2,2,2,2,2,2,2,2,2,2,2,2,2,2,2,2,2,2,2,2,2,2,2,2,2,2,2,2,2,2,2,2,2,
2,2,2,2,2,2,2,2,2,2,2,2,2,2,2,2,2,2,2,2,2,2,2,2,2,2,2,2,2,2,2,2,2,2,2,2,2,2,2,2,2,2,2,2,2,2,2,2,2,2,2,2,2,2,2,2,2,2,2,2,
2,2,1,1,1,1,1,1,1,1,1,1,2,2,1,1,1,1,1,1,1,1,1,1,2,2,1,1,1,1,1,1,1,1,1,1,2,2,1,1,1,1,1,1,1,1,1,1,2,2,1,1,1,1,1,1,1,1,1,1,
2,2,1,1,1,1,1,1,1,1,1,1,2,2,1,1,1,1,1,1,1,1,1,1,2,2,1,1,1,1,1,1,1,1,1,1,2,2,1,1,1,1,1,1,1,1,1,1,2,2,1,1,1,1,1,1,1,1,1,1,
2,2,1,1,1,1,1,1,1,1,1,1,2,2,1,1,1,1,1,1,1,1,1,1,2,2,1,1,1,1,1,1,1,1,1,1,2,2,1,1,1,1,1,1,1,1,1,1,2,2,1,1,1,1,1,1,1,1,1,1,
2,2,1,1,1,1,1,1,1,1,1,1,2,2,1,1,1,1,1,1,1,1,1,1,2,2,1,1,1,1,1,1,1,1,1,1,2,2,1,1,1,1,1,1,1,1,1,1,2,2,1,1,1,1,1,1,1,1,1,1,
2,2,1,1,1,1,1,1,1,1,1,1,2,2,1,1,1,1,1,1,1,1,1,1,2,2,1,1,1,1,1,1,1,1,1,1,2,2,1,1,1,1,1,1,1,1,1,1,2,2,1,1,1,1,1,1,1,1,1,1,
2,2,1,1,1,1,1,1,1,1,1,1,2,2,1,1,1,1,1,1,1,1,1,1,2,2,1,1,1,1,1,1,1,1,1,1,2,2,1,1,1,1,1,1,1,1,1,1,2,2,1,1,1,1,1,1,1,1,1,1,
2,2,1,1,1,1,1,1,1,1,1,1,2,2,1,1,1,1,1,1,1,1,1,1,2,2,1,1,1,1,1,1,1,1,1,1,2,2,1,1,1,1,1,1,1,1,1,1,2,2,1,1,1,1,1,1,1,1,1,1,
2,2,1,1,1,1,1,1,1,1,1,1,2,2,1,1,1,1,1,1,1,1,1,1,2,2,1,1,1,1,1,1,1,1,1,1,2,2,1,1,1,1,1,1,1,1,1,1,2,2,1,1,1,1,1,1,1,1,1,1,
2,2,1,1,1,1,1,1,1,1,1,1,2,2,1,1,1,1,1,1,1,1,1,1,2,2,1,1,1,1,1,1,1,1,1,1,2,2,1,1,1,1,1,1,1,1,1,1,2,2,1,1,1,1,1,1,1,1,1,1,
2,2,1,1,1,1,1,1,1,1,1,1,2,2,1,1,1,1,1,1,1,1,1,1,2,2,1,1,1,1,1,1,1,1,1,1,2,2,1,1,1,1,1,1,1,1,1,1,2,2,1,1,1,1,1,1,1,1,1,1,
2,2,2,2,2,2,2,2,2,2,2,2,2,2,2,2,2,2,2,2,2,2,2,2,2,2,2,2,2,2,2,2,2,2,2,2,2,2,2,2,2,2,2,2,2,2,2,2,2,2,2,2,2,2,2,2,2,2,2,2,
2,2,2,2,2,2,2,2,2,2,2,2,2,2,2,2,2,2,2,2,2,2,2,2,2,2,2,2,2,2,2,2,2,2,2,2,2,2,2,2,2,2,2,2,2,2,2,2,2,2,2,2,2,2,2,2,2,2,2,2,
2,2,1,1,1,1,1,1,1,1,1,1,2,2,1,1,1,1,1,1,1,1,1,1,2,2,1,1,1,1,1,1,1,1,1,1,2,2,1,1,1,1,1,1,1,1,1,1,2,2,1,1,1,1,1,1,1,1,1,1,
2,2,1,1,1,1,1,1,1,1,1,1,2,2,1,1,1,1,1,1,1,1,1,1,2,2,1,1,1,1,1,1,1,1,1,1,2,2,1,1,1,1,1,1,1,1,1,1,2,2,1,1,1,1,1,1,1,1,1,1,
2,2,1,1,1,1,1,1,1,1,1,1,2,2,1,1,1,1,1,1,1,1,1,1,2,2,1,1,1,1,1,1,1,1,1,1,2,2,1,1,1,1,1,1,1,1,1,1,2,2,1,1,1,1,1,1,1,1,1,1,
2,2,1,1,1,1,1,1,1,1,1,1,2,2,1,1,1,1,1,1,1,1,1,1,2,2,1,1,1,1,1,1,1,1,1,1,2,2,1,1,1,1,1,1,1,1,1,1,2,2,1,1,1,1,1,1,1,1,1,1,
2,2,1,1,1,1,1,1,1,1,1,1,2,2,1,1,1,1,1,1,1,1,1,1,2,2,1,1,1,1,1,1,1,1,1,1,2,2,1,1,1,1,1,1,1,1,1,1,2,2,1,1,1,1,1,1,1,1,1,1,
2,2,1,1,1,1,1,1,1,1,1,1,2,2,1,1,1,1,1,1,1,1,1,1,2,2,1,1,1,1,1,1,1,1,1,1,2,2,1,1,1,1,1,1,1,1,1,1,2,2,1,1,1,1,1,1,1,1,1,1,
2,2,1,1,1,1,1,1,1,1,1,1,2,2,1,1,1,1,1,1,1,1,1,1,2,2,1,1,1,1,1,1,1,1,1,1,2,2,1,1,1,1,1,1,1,1,1,1,2,2,1,1,1,1,1,1,1,1,1,1,
2,2,1,1,1,1,1,1,1,1,1,1,2,2,1,1,1,1,1,1,1,1,1,1,2,2,1,1,1,1,1,1,1,1,1,1,2,2,1,1,1,1,1,1,1,1,1,1,2,2,1,1,1,1,1,1,1,1,1,1,
2,2,1,1,1,1,1,1,1,1,1,1,2,2,1,1,1,1,1,1,1,1,1,1,2,2,1,1,1,1,1,1,1,1,1,1,2,2,1,1,1,1,1,1,1,1,1,1,2,2,1,1,1,1,1,1,1,1,1,1,
2,2,1,1,1,1,1,1,1,1,1,1,2,2,1,1,1,1,1,1,1,1,1,1,2,2,1,1,1,1,1,1,1,1,1,1,2,2,1,1,1,1,1,1,1,1,1,1,2,2,1,1,1,1,1,1,1,1,1,1
</data>
 </layer>
 <layer id="2" name="Props" width="60" height="60">
  <data encoding="csv">
0,0,0,0,0,0,0,0,0,0,0,0,0,0,0,0,15,0,0,0,0,0,0,0,0,0,0,0,0,0,16,0,0,0,0,0,0,0,0,0,0,0,0,16,0,0,0,0,0,0,0,0,0,0,0,0,0,0,0,0,
0,0,0,0,16,0,0,0,14,0,0,0,0,0,0,0,0,0,0,0,0,0,0,0,0,0,0,0,0,0,0,0,0,16,0,0,0,0,0,0,0,0,0,0,0,0,0,0,0,0,0,0,0,0,0,14,0,0,0,0,
0,0,0,0,0,0,0,0,0,0,0,0,0,0,13,0,0,0,0,0,0,0,0,0,0,0,0,0,0,0,0,0,0,0,12,0,0,0,0,0,0,0,0,0,0,0,0,0,0,0,12,0,0,0,13,0,0,0,0,0,
0,0,21,0,0,0,21,0,0,0,17,0,0,0,0,0,0,0,20,0,0,0,24,0,0,0,19,0,0,0,0,0,0,0,0,0,0,0,0,0,0,0,25,0,0,0,0,0,0,0,0,0,0,0,0,0,0,0,0,0,
0,16,0,0,0,0,0,0,0,0,0,0,0,0,0,0,0,0,0,0,0,0,0,0,0,0,0,0,0,0,0,0,0,0,0,0,0,0,0,0,0,0,0,0,0,0,0,0,0,0,0,0,0,0,0,0,0,0,0,0,
0,0,0,0,0,0,0,0,0,0,0,0,0,0,0,0,0,0,0,0,0,0,0,0,0,0,0,0,0,0,0,0,0,0,0,0,0,0,0,0,0,0,0,0,0,0,0,0,0,0,0,0,0,0,0,0,0,0,0,0,
0,0,0,0,0,0,12,0,0,0,0,0,0,0,0,0,0,0,0,0,0,0,0,0,0,0,13,0,0,0,12,0,0,0,0,0,0,0,12,0,0,0,12,0,0,0,0,0,0,0,12,0,0,0,0,0,0,0,0,0,
0,0,0,0,0,0,0,0,0,0,31,0,0,0,30,0,0,0,0,0,0,0,28,0,0,0,0,0,0,0,0,0,0,0,28,0,0,0,0,0,0,0,0,0,0,0,20,0,0,0,0,0,0,0,0,0,0,0,0,0,
0,0,0,0,0,0,0,0,0,0,0,0,0,0,0,0,0,0,0,0,0,0,0,0,0,0,0,0,0,0,0,0,0,0,0,0,0,0,0,0,0,0,0,0,0,0,0,0,16,0,0,0,0,0,0,0,0,0,0,0,
0,0,0,0,0,0,0,0,0,0,0,0,0,0,0,0,0,0,0,0,0,0,0,0,0,0,0,0,0,0,0,0,0,0,0,0,0,0,0,0,0,0,0,0,0,0,0,0,0,0,0,0,0,0,0,0,0,0,0,0,
0,0,0,0,0,0,12,0,0,0,0,0,0,0,4,0,0,0,0,0,0,0,6,0,0,0,0,0,0,0,0,0,0,0,13,0,0,0,13,0,0,0,0,0,0,0,0,0,0,0,0,0,0,0,0,0,0,0,0,0,
0,0,23,0,0,0,0,0,0,0,29,0,0,0,0,0,0,0,29,0,0,0,0,0,0,0,0,0,0,0,29,0,0,0,0,0,0,0,0,0,0,0,18,0,0,0,22,0,0,0,17,0,0,0,31,0,0,0,0,0,
0,0,0,16,0,0,0,0,0,0,0,0,0,0,0,0,0,0,0,0,0,0,0,0,0,0,0,0,0,0,0,0,0,0,0,0,0,0,0,0,0,0,0,0,0,0,0,0,0,0,0,0,0,0,0,0,0,0,0,0,
0,0,0,0,0,14,0,0,0,0,0,0,0,0,16,0,0,0,0,0,0,0,0,0,0,0,0,0,0,0,0,14,0,0,0,0,0,0,0,0,15,0,0,0,0,0,0,0,0,0,0,0,0,0,0,0,0,0,0,0,
0,16,4,0,0,0,0,0,0,0,6,0,0,0,4,0,0,0,0,0,0,0,0,0,0,0,0,0,0,0,0,0,0,0,13,0,0,0,13,0,0,0,4,0,0,0,0,0,0,0,13,0,0,0,6,0,0,0,0,0,
0,0,0,0,0,0,0,0,0,0,0,0,0,0,0,0,0,0,19,0,0,0,0,0,0,0,0,0,0,0,0,0,0,0,0,0,0,16,0,0,0,0,0,0,0,0,35,0,0,0,0,0,0,0,0,0,0,0,0,0,
0,0,0,0,0,0,0,0,0,0,0,0,0,0,0,0,0,0,0,0,0,0,0,0,0,0,0,0,0,0,0,0,0,0,0,0,0,0,0,0,0,0,0,0,0,0,0,0,0,0,0,0,0,0,0,0,0,0,0,0,
0,0,0,0,0,0,0,0,0,0,0,0,0,0,0,0,0,0,0,0,0,0,0,0,0,0,0,0,0,0,0,0,0,0,0,0,0,0,0,0,0,0,0,0,0,0,0,0,0,0,0,0,0,0,0,0,0,0,0,0,
0,0,12,0,0,0,12,0,0,0,12,0,0,0,12,0,0,0,0,0,0,0,12,0,0,0,6,0,0,0,0,0,0,0,0,0,16,0,0,0,0,0,13,0,0,0,12,0,0,0,11,0,0,0,0,0,0,0,0,0,
14,0,0,0,0,0,0,0,0,0,0,0,0,0,0,0,0,0,29,0,0,0,0,0,0,0,0,0,0,0,0,0,0,0,0,0,0,0,31,0,0,0,0,0,0,0,0,0,0,0,0,0,0,0,0,0,0,0,0,0,
0,0,0,0,0,0,0,0,0,0,0,0,0,0,0,0,0,0,0,0,0,0,0,0,0,0,0,0,0,0,0,0,0,0,0,0,0,0,0,0,0,0,0,0,0,0,0,0,16,0,0,0,0,0,0,0,0,0,0,0,
0,0,0,0,0,0,0,0,0,0,0,0,0,0,0,0,0,0,0,0,0,0,0,0,16,0,0,0,0,0,0,0,0,0,0,0,0,0,0,0,0,0,0,0,0,0,0,0,0,0,0,0,0,0,0,0,0,0,0,0,
0,0,11,0,0,0,11,0,0,0,0,0,0,0,11,0,0,0,0,0,0,0,0,0,0,0,12,0,0,0,13,0,0,0,12,0,0,0,12,0,0,0,0,0,0,0,0,0,0,0,0,0,0,0,13,0,0,0,0,0,
0,15,0,0,0,0,0,0,0,0,19,0,0,14,0,0,0,0,31,0,0,0,0,0,0,0,0,0,0,0,0,0,0,0,0,0,0,0,0,0,0,0,18,0,0,0,19,0,0,0,0,0,0,0,0,0,0,0,0,0,
0,0,0,0,0,16,0,0,0,0,0,0,0,0,0,0,0,0,0,0,0,0,0,0,0,0,0,0,0,0,0,0,0,0,0,0,0,0,0,0,16,0,0,0,0,0,0,0,0,0,0,0,0,0,0,0,0,0,0,0,
0,0,0,0,0,0,0,14,0,0,16,0,0,0,0,0,0,0,0,0,0,0,0,0,0,0,0,16,0,0,0,0,0,0,0,0,0,0,0,16,0,0,0,0,0,0,0,0,0,0,0,0,0,0,0,0,0,0,0,0,
0,0,0,0,0,0,0,0,0,0,12,0,0,0,0,0,0,0,0,0,0,0,0,0,0,0,0,0,0,0,0,0,0,0,0,0,0,0,0,0,0,0,12,0,0,0,0,0,0,0,6,0,0,0,6,0,0,0,0,0,
0,0,22,0,0,0,17,0,0,0,0,0,0,0,0,0,0,0,30,0,0,0,34,0,0,0,0,0,0,0,0,0,0,0,0,0,0,0,23,0,0,0,0,0,0,0,32,0,0,0,0,0,0,0,0,0,0,0,0,0,
0,0,0,0,0,0,0,0,0,0,0,0,0,0,0,0,0,0,0,0,0,0,0,0,0,0,0,0,0,0,0,0,0,0,0,0,16,0,0,0,0,0,0,0,0,0,0,0,0,0,0,0,0,0,0,0,0,0,0,0,
0,16,0,0,0,0,0,0,0,0,0,0,0,0,0,0,0,0,0,0,0,0,0,0,0,0,0,0,0,0,0,0,0,0,0,0,16,0,0,0,0,0,0,0,0,0,0,0,0,0,0,0,0,0,0,0,0,0,0,0,
0,0,0,0,0,0,0,0,0,0,6,0,0,0,13,0,0,0,12,0,0,0,0,0,0,0,0,0,0,0,0,0,0,0,0,0,0,0,12,0,0,0,0,0,0,0,5,0,0,0,13,0,0,0,12,0,0,0,0,0,
0,0,0,0,0,0,26,0,0,0,0,0,0,0,0,0,0,0,0,0,0,0,19,0,0,0,0,0,0,0,0,0,0,0,0,0,0,0,0,0,0,0,0,0,0,0,0,0,0,0,0,0,0,0,0,0,0,0,0,0,
0,0,0,0,0,0,0,0,0,0,0,0,0,0,0,0,0,0,0,0,0,0,0,0,0,0,0,0,0,0,0,0,0,0,0,0,0,0,0,0,0,0,0,0,0,0,0,0,0,0,0,0,0,0,0,0,0,0,0,0,
15,0,0,0,0,0,0,0,0,0,0,0,0,0,0,0,0,0,0,0,0,0,0,0,0,0,0,0,0,0,0,0,0,0,0,0,0,0,0,0,0,0,0,0,0,0,0,0,0,0,0,0,0,0,0,0,0,0,0,0,
0,0,11,0,0,0,12,0,0,0,0,0,0,0,0,0,0,0,0,0,0,0,0,0,37,0,0,0,0,0,0,0,0,0,0,0,0,0,0,0,0,0,0,0,0,0,13,0,0,0,5,0,0,0,13,0,0,0,0,0,
0,0,0,0,0,0,0,0,0,0,0,0,0,0,0,0,0,0,25,0,0,0,0,0,0,0,0,0,0,0,0,0,0,0,0,0,0,0,0,0,0,0,36,0,0,0,0,0,0,0,0,0,0,0,0,0,0,0,0,0,
0,0,0,0,16,0,0,0,16,0,0,0,0,0,0,0,0,0,0,0,0,0,16,0,0,0,0,0,0,0,0,0,0,0,0,0,0,0,0,0,0,0,0,0,0,0,0,0,0,0,0,0,0,0,0,0,0,0,0,0,
0,0,0,0,0,0,16,0,0,0,0,0,0,0,0,0,0,0,0,0,0,0,0,0,0,0,0,0,0,0,0,0,0,0,0,0,0,0,0,0,0,0,0,0,0,0,0,16,0,0,0,0,0,0,0,14,0,0,0,0,
0,0,13,0,0,0,0,0,0,0,0,0,0,0,13,0,0,0,13,0,0,0,13,0,0,0,0,0,0,0,6,0,0,0,0,0,0,15,0,0,0,0,12,0,0,0,0,0,0,0,12,0,0,0,12,0,0,0,0,0,
0,0,0,0,0,0,0,0,0,0,30,0,0,0,0,0,0,0,0,0,0,0,0,0,0,0,23,0,0,0,0,0,0,0,19,0,0,0,21,0,0,0,0,0,0,0,25,0,0,0,0,0,0,0,0,0,0,0,0,0,
0,0,0,0,0,0,0,0,0,0,0,0,0,0,0,0,0,0,0,0,0,0,0,0,0,0,0,0,0,0,0,0,0,0,0,0,0,0,0,0,0,0,0,0,0,0,0,0,0,0,0,0,0,0,0,0,0,0,0,0,
0,0,0,0,0,0,0,0,0,0,0,0,0,0,0,0,0,0,0,0,0,0,0,0,0,0,0,0,0,0,0,0,0,0,0,0,0,0,0,0,0,0,0,0,0,0,0,0,0,0,0,0,0,0,0,0,0,0,0,0,
0,0,0,0,0,0,0,0,0,0,13,0,0,0,4,0,0,0,0,0,0,0,0,0,0,0,0,0,0,0,6,0,0,0,0,0,0,0,0,0,0,0,0,0,0,0,0,0,0,0,0,0,0,0,0,0,0,0,0,0,
0,0,17,0,0,0,17,0,0,0,0,0,0,0,0,0,0,0,18,0,0,0,19,0,0,0,33,0,0,0,0,0,0,0,0,0,0,0,0,0,0,0,0,0,0,0,27,0,0,0,33,0,0,0,23,0,0,0,0,0,
0,0,0,0,0,0,0,0,0,0,0,0,0,0,0,0,0,0,0,0,0,0,0,0,0,0,0,0,0,0,0,0,0,0,0,0,0,0,0,0,0,0,0,0,0,0,0,0,0,0,0,0,0,0,0,0,0,0,0,0,
0,0,0,0,0,0,0,0,0,0,0,0,0,16,0,0,0,0,0,0,0,0,0,0,0,0,0,0,0,0,0,0,0,0,0,0,0,0,0,0,0,0,0,0,0,0,0,0,0,0,0,0,0,0,0,0,0,0,0,0,
0,0,0,0,0,0,0,0,0,0,12,0,0,0,13,0,0,0,0,0,0,0,12,0,0,0,9,0,0,0,12,0,0,0,13,0,0,0,13,0,0,0,9,0,0,0,13,0,0,0,9,0,0,0,0,0,0,0,0,0,
0,0,0,0,0,0,18,0,0,0,0,0,0,0,0,0,0,0,0,0,0,0,0,0,0,0,0,0,0,0,0,0,0,0,0,0,0,0,0,0,0,0,0,0,0,0,0,0,0,0,0,0,0,0,27,0,0,0,0,0,
0,0,0,0,0,0,0,0,0,0,0,0,0,0,0,0,0,0,0,0,0,16,0,0,0,0,0,0,0,0,16,0,0,0,0,0,0,0,0,0,0,0,0,0,0,0,0,0,0,0,14,0,0,0,0,0,0,0,0,0,
0,0,15,0,0,0,0,0,0,0,0,0,0,0,0,0,0,0,0,0,0,0,0,0,0,0,0,0,0,0,0,0,0,0,0,0,0,0,0,0,0,0,0,0,0,0,0,0,0,0,0,0,0,0,0,0,0,15,0,0,
0,0,6,0,0,0,0,0,0,0,11,0,0,0,12,0,0,0,0,0,0,0,0,0,0,0,0,0,0,0,0,0,0,0,4,0,0,0,0,0,0,0,13,0,0,0,11,0,0,0,12,0,0,0,13,0,0,0,0,0,
0,0,0,0,0,0,36,0,0,0,0,0,0,0,0,0,0,0,0,0,0,0,24,0,0,0,25,0,0,0,0,0,0,0,0,0,0,0,19,0,0,0,0,0,0,0,0,0,0,0,0,0,0,0,0,0,0,0,0,0,
0,0,0,0,0,0,0,0,0,0,0,0,0,0,0,0,0,0,0,0,0,0,0,0,0,0,0,0,0,0,0,0,0,0,0,0,0,0,0,0,0,0,0,0,0,0,0,0,0,0,0,0,0,0,0,0,0,0,0,0,
0,0,0,0,0,0,0,0,0,0,0,0,0,0,0,0,0,0,0,0,0,0,0,0,0,0,0,0,0,0,0,0,0,0,0,0,0,0,0,0,0,0,0,0,0,0,0,0,0,0,0,0,0,0,0,0,0,0,0,0,
0,0,0,0,0,0,0,0,0,0,13,0,0,0,13,0,0,0,0,0,0,0,12,0,0,0,0,0,0,0,0,0,0,0,0,0,0,0,11,0,0,0,13,0,0,0,0,0,0,0,0,0,0,0,11,0,0,0,0,0,
0,16,31,0,0,0,28,0,0,0,0,0,0,0,0,0,0,0,24,0,0,0,0,0,0,16,32,0,0,0,0,0,0,0,0,0,0,0,0,0,0,0,0,0,0,0,0,0,0,0,36,0,0,0,0,0,0,0,0,0,
0,16,0,0,0,0,0,0,0,0,0,0,0,0,0,0,0,0,0,0,0,0,0,0,0,0,0,0,0,0,0,0,0,0,0,0,0,0,0,0,0,0,0,0,0,0,0,0,0,0,0,0,0,0,0,0,0,0,0,0,
0,0,0,0,0,0,0,0,0,0,0,0,0,0,0,0,0,0,0,0,0,0,0,0,0,0,0,0,0,0,0,0,0,0,0,0,0,0,0,0,0,0,0,0,0,0,0,0,0,0,0,0,0,0,0,0,0,0,0,0,
0,0,0,0,0,0,0,0,0,0,0,0,15,0,0,0,0,0,0,0,0,0,0,0,0,15,0,0,0,0,0,0,0,0,0,0,0,0,0,0,0,0,0,0,0,0,0,0,14,0,0,0,0,0,0,0,0,0,0,0,
0,0,0,0,0,0,0,0,0,0,0,0,0,0,0,0,0,0,0,0,0,0,0,0,0,0,0,0,0,0,0,0,0,0,0,0,0,0,0,0,0,0,0,0,0,0,0,0,0,0,0,0,0,0,0,0,0,0,0,0
</data>
 </layer>
 <objectgroup id="3" name="Collisions">
  <object id="1" name="Wall_Parliament" x="1556" y="1748" width="728" height="472"/>
  <object id="2" name="Wall_buildingTiles_094" x="133" y="133" width="118" height="118"/>
  <object id="3" name="Wall_buildingTiles_094" x="389" y="133" width="118" height="118"/>
  <object id="4" name="Wall_buildingTiles_090" x="645" y="133" width="118" height="118"/>
  <object id="5" name="Wall_Prop" x="906" y="138" width="44" height="44"/>
  <object id="6" name="Wall_buildingTiles_093" x="1157" y="133" width="118" height="118"/>
  <object id="7" name="Wall_buildingTiles_097" x="1413" y="133" width="118" height="118"/>
  <object id="8" name="Wall_buildingTiles_092" x="1669" y="133" width="118" height="118"/>
  <object id="9" name="Wall_Prop" x="2186" y="138" width="44" height="44"/>
  <object id="10" name="Wall_buildingTiles_098" x="2693" y="133" width="118" height="118"/>
  <object id="11" name="Wall_Prop" x="3210" y="138" width="44" height="44"/>
  <object id="12" name="Wall_Prop" x="3466" y="138" width="44" height="44"/>
  <object id="13" name="Wall_Prop" x="394" y="394" width="44" height="44"/>
  <object id="14" name="Wall_buildingTiles_104" x="645" y="389" width="118" height="118"/>
  <object id="15" name="Wall_buildingTiles_103" x="901" y="389" width="118" height="118"/>
  <object id="16" name="Wall_buildingTiles_101" x="1413" y="389" width="118" height="118"/>
  <object id="17" name="Wall_Prop" x="1674" y="394" width="44" height="44"/>
  <object id="18" name="Wall_Prop" x="1930" y="394" width="44" height="44"/>
  <object id="19" name="Wall_buildingTiles_101" x="2181" y="389" width="118" height="118"/>
  <object id="20" name="Wall_Prop" x="2442" y="394" width="44" height="44"/>
  <object id="21" name="Wall_Prop" x="2698" y="394" width="44" height="44"/>
  <object id="22" name="Wall_buildingTiles_093" x="2949" y="389" width="118" height="118"/>
  <object id="23" name="Wall_Prop" x="3210" y="394" width="44" height="44"/>
  <object id="24" name="Wall_buildingTiles_096" x="133" y="645" width="118" height="118"/>
  <object id="25" name="Wall_Prop" x="394" y="650" width="44" height="44"/>
  <object id="26" name="Wall_buildingTiles_102" x="645" y="645" width="118" height="118"/>
  <object id="27" name="Wall_Prop" x="906" y="650" width="44" height="44"/>
  <object id="28" name="Wall_buildingTiles_102" x="1157" y="645" width="118" height="118"/>
  <object id="29" name="Wall_Prop" x="1418" y="650" width="44" height="44"/>
  <object id="30" name="Wall_buildingTiles_102" x="1925" y="645" width="118" height="118"/>
  <object id="31" name="Wall_Prop" x="2186" y="650" width="44" height="44"/>
  <object id="32" name="Wall_Prop" x="2442" y="650" width="44" height="44"/>
  <object id="33" name="Wall_buildingTiles_091" x="2693" y="645" width="118" height="118"/>
  <object id="34" name="Wall_buildingTiles_095" x="2949" y="645" width="118" height="118"/>
  <object id="35" name="Wall_buildingTiles_090" x="3205" y="645" width="118" height="118"/>
  <object id="36" name="Wall_buildingTiles_104" x="3461" y="645" width="118" height="118"/>
  <object id="37" name="Wall_Prop" x="138" y="906" width="44" height="44"/>
  <object id="38" name="Wall_Prop" x="650" y="906" width="44" height="44"/>
  <object id="39" name="Wall_Prop" x="906" y="906" width="44" height="44"/>
  <object id="40" name="Wall_buildingTiles_092" x="1157" y="901" width="118" height="118"/>
  <object id="41" name="Wall_Prop" x="2186" y="906" width="44" height="44"/>
  <object id="42" name="Wall_Prop" x="2442" y="906" width="44" height="44"/>
  <object id="43" name="Wall_Prop" x="2698" y="906" width="44" height="44"/>
  <object id="44" name="Wall_buildingTiles_108" x="2949" y="901" width="118" height="118"/>
  <object id="45" name="Wall_Prop" x="3210" y="906" width="44" height="44"/>
  <object id="46" name="Wall_Prop" x="3466" y="906" width="44" height="44"/>
  <object id="47" name="Wall_Prop" x="138" y="1162" width="44" height="44"/>
  <object id="48" name="Wall_Prop" x="394" y="1162" width="44" height="44"/>
  <object id="49" name="Wall_Prop" x="650" y="1162" width="44" height="44"/>
  <object id="50" name="Wall_Prop" x="906" y="1162" width="44" height="44"/>
  <object id="51" name="Wall_buildingTiles_102" x="1157" y="1157" width="118" height="118"/>
  <object id="52" name="Wall_Prop" x="1418" y="1162" width="44" height="44"/>
  <object id="53" name="Wall_Prop" x="1674" y="1162" width="44" height="44"/>
  <object id="54" name="Wall_buildingTiles_104" x="2437" y="1157" width="118" height="118"/>
  <object id="55" name="Wall_Prop" x="2698" y="1162" width="44" height="44"/>
  <object id="56" name="Wall_Prop" x="2954" y="1162" width="44" height="44"/>
  <object id="57" name="Wall_Prop" x="3210" y="1162" width="44" height="44"/>
  <object id="58" name="Wall_Prop" x="138" y="1418" width="44" height="44"/>
  <object id="59" name="Wall_Prop" x="394" y="1418" width="44" height="44"/>
  <object id="60" name="Wall_buildingTiles_092" x="645" y="1413" width="118" height="118"/>
  <object id="61" name="Wall_Prop" x="906" y="1418" width="44" height="44"/>
  <object id="62" name="Wall_buildingTiles_104" x="1157" y="1413" width="118" height="118"/>
  <object id="63" name="Wall_Prop" x="1674" y="1418" width="44" height="44"/>
  <object id="64" name="Wall_Prop" x="1930" y="1418" width="44" height="44"/>
  <object id="65" name="Wall_Prop" x="2186" y="1418" width="44" height="44"/>
  <object id="66" name="Wall_Prop" x="2442" y="1418" width="44" height="44"/>
  <object id="67" name="Wall_buildingTiles_091" x="2693" y="1413" width="118" height="118"/>
  <object id="68" name="Wall_buildingTiles_092" x="2949" y="1413" width="118" height="118"/>
  <object id="69" name="Wall_Prop" x="3466" y="1418" width="44" height="44"/>
  <object id="70" name="Wall_buildingTiles_095" x="133" y="1669" width="118" height="118"/>
  <object id="71" name="Wall_buildingTiles_090" x="389" y="1669" width="118" height="118"/>
  <object id="72" name="Wall_Prop" x="650" y="1674" width="44" height="44"/>
  <object id="73" name="Wall_buildingTiles_103" x="1157" y="1669" width="118" height="118"/>
  <object id="74" name="Wall_buildingTiles_107" x="1413" y="1669" width="118" height="118"/>
  <object id="75" name="Wall_buildingTiles_096" x="2437" y="1669" width="118" height="118"/>
  <object id="76" name="Wall_Prop" x="2698" y="1674" width="44" height="44"/>
  <object id="77" name="Wall_buildingTiles_105" x="2949" y="1669" width="118" height="118"/>
  <object id="78" name="Wall_Prop" x="3210" y="1674" width="44" height="44"/>
  <object id="79" name="Wall_Prop" x="3466" y="1674" width="44" height="44"/>
  <object id="80" name="Wall_buildingTiles_099" x="389" y="1925" width="118" height="118"/>
  <object id="81" name="Wall_Prop" x="650" y="1930" width="44" height="44"/>
  <object id="82" name="Wall_Prop" x="906" y="1930" width="44" height="44"/>
  <object id="83" name="Wall_Prop" x="1162" y="1930" width="44" height="44"/>
  <object id="84" name="Wall_buildingTiles_092" x="1413" y="1925" width="118" height="118"/>
  <object id="85" name="Wall_Prop" x="2442" y="1930" width="44" height="44"/>
  <object id="86" name="Wall_Prop" x="2954" y="1930" width="44" height="44"/>
  <object id="87" name="Wall_Prop" x="3210" y="1930" width="44" height="44"/>
  <object id="88" name="Wall_Prop" x="3466" y="1930" width="44" height="44"/>
  <object id="89" name="Wall_Prop" x="138" y="2186" width="44" height="44"/>
  <object id="90" name="Wall_Prop" x="394" y="2186" width="44" height="44"/>
  <object id="91" name="Wall_buildingTiles_098" x="1157" y="2181" width="118" height="118"/>
  <object id="92" name="Wall_buildingTiles_109" x="2693" y="2181" width="118" height="118"/>
  <object id="93" name="Wall_Prop" x="2954" y="2186" width="44" height="44"/>
  <object id="94" name="Wall_Prop" x="3210" y="2186" width="44" height="44"/>
  <object id="95" name="Wall_Prop" x="3466" y="2186" width="44" height="44"/>
  <object id="96" name="Wall_Prop" x="138" y="2442" width="44" height="44"/>
  <object id="97" name="Wall_buildingTiles_103" x="645" y="2437" width="118" height="118"/>
  <object id="98" name="Wall_Prop" x="906" y="2442" width="44" height="44"/>
  <object id="99" name="Wall_Prop" x="1162" y="2442" width="44" height="44"/>
  <object id="100" name="Wall_Prop" x="1418" y="2442" width="44" height="44"/>
  <object id="101" name="Wall_buildingTiles_096" x="1669" y="2437" width="118" height="118"/>
  <object id="102" name="Wall_Prop" x="1930" y="2442" width="44" height="44"/>
  <object id="103" name="Wall_buildingTiles_092" x="2181" y="2437" width="118" height="118"/>
  <object id="104" name="Wall_buildingTiles_094" x="2437" y="2437" width="118" height="118"/>
  <object id="105" name="Wall_Prop" x="2698" y="2442" width="44" height="44"/>
  <object id="106" name="Wall_buildingTiles_098" x="2949" y="2437" width="118" height="118"/>
  <object id="107" name="Wall_Prop" x="3210" y="2442" width="44" height="44"/>
  <object id="108" name="Wall_Prop" x="3466" y="2442" width="44" height="44"/>
  <object id="109" name="Wall_buildingTiles_090" x="133" y="2693" width="118" height="118"/>
  <object id="110" name="Wall_buildingTiles_090" x="389" y="2693" width="118" height="118"/>
  <object id="111" name="Wall_Prop" x="650" y="2698" width="44" height="44"/>
  <object id="112" name="Wall_Prop" x="906" y="2698" width="44" height="44"/>
  <object id="113" name="Wall_buildingTiles_091" x="1157" y="2693" width="118" height="118"/>
  <object id="114" name="Wall_buildingTiles_092" x="1413" y="2693" width="118" height="118"/>
  <object id="115" name="Wall_buildingTiles_106" x="1669" y="2693" width="118" height="118"/>
  <object id="116" name="Wall_Prop" x="1930" y="2698" width="44" height="44"/>
  <object id="117" name="Wall_buildingTiles_100" x="2949" y="2693" width="118" height="118"/>
  <object id="118" name="Wall_buildingTiles_106" x="3205" y="2693" width="118" height="118"/>
  <object id="119" name="Wall_buildingTiles_096" x="3461" y="2693" width="118" height="118"/>
  <object id="120" name="Wall_buildingTiles_091" x="389" y="2949" width="118" height="118"/>
  <object id="121" name="Wall_Prop" x="650" y="2954" width="44" height="44"/>
  <object id="122" name="Wall_Prop" x="906" y="2954" width="44" height="44"/>
  <object id="123" name="Wall_Prop" x="1418" y="2954" width="44" height="44"/>
  <object id="124" name="Wall_Prop" x="1930" y="2954" width="44" height="44"/>
  <object id="125" name="Wall_Prop" x="2186" y="2954" width="44" height="44"/>
  <object id="126" name="Wall_Prop" x="2442" y="2954" width="44" height="44"/>
  <object id="127" name="Wall_Prop" x="2954" y="2954" width="44" height="44"/>
  <object id="128" name="Wall_buildingTiles_100" x="3461" y="2949" width="118" height="118"/>
  <object id="129" name="Wall_Prop" x="138" y="3210" width="44" height="44"/>
  <object id="130" name="Wall_buildingTiles_109" x="389" y="3205" width="118" height="118"/>
  <object id="131" name="Wall_Prop" x="650" y="3210" width="44" height="44"/>
  <object id="132" name="Wall_Prop" x="906" y="3210" width="44" height="44"/>
  <object id="133" name="Wall_buildingTiles_097" x="1413" y="3205" width="118" height="118"/>
  <object id="134" name="Wall_buildingTiles_098" x="1669" y="3205" width="118" height="118"/>
  <object id="135" name="Wall_Prop" x="2186" y="3210" width="44" height="44"/>
  <object id="136" name="Wall_buildingTiles_092" x="2437" y="3205" width="118" height="118"/>
  <object id="137" name="Wall_Prop" x="2698" y="3210" width="44" height="44"/>
  <object id="138" name="Wall_Prop" x="2954" y="3210" width="44" height="44"/>
  <object id="139" name="Wall_Prop" x="3210" y="3210" width="44" height="44"/>
  <object id="140" name="Wall_Prop" x="3466" y="3210" width="44" height="44"/>
  <object id="141" name="Wall_buildingTiles_104" x="133" y="3461" width="118" height="118"/>
  <object id="142" name="Wall_buildingTiles_101" x="389" y="3461" width="118" height="118"/>
  <object id="143" name="Wall_Prop" x="650" y="3466" width="44" height="44"/>
  <object id="144" name="Wall_Prop" x="906" y="3466" width="44" height="44"/>
  <object id="145" name="Wall_buildingTiles_097" x="1157" y="3461" width="118" height="118"/>
  <object id="146" name="Wall_Prop" x="1418" y="3466" width="44" height="44"/>
  <object id="147" name="Wall_buildingTiles_105" x="1669" y="3461" width="118" height="118"/>
  <object id="148" name="Wall_Prop" x="2442" y="3466" width="44" height="44"/>
  <object id="149" name="Wall_Prop" x="2698" y="3466" width="44" height="44"/>
  <object id="150" name="Wall_buildingTiles_109" x="3205" y="3461" width="118" height="118"/>
  <object id="151" name="Wall_Prop" x="3466" y="3466" width="44" height="44"/>
  <object id="152" name="Wall_Car" x="1029" y="5" width="54" height="54"/>
  <object id="153" name="Wall_Car" x="1925" y="5" width="54" height="54"/>
  <object id="154" name="Wall_Car" x="2757" y="5" width="54" height="54"/>
  <object id="155" name="Wall_Car" x="261" y="69" width="54" height="54"/>
  <object id="156" name="Wall_Car" x="517" y="69" width="54" height="54"/>
  <object id="157" name="Wall_Car" x="2117" y="69" width="54" height="54"/>
  <object id="158" name="Wall_Car" x="3525" y="69" width="54" height="54"/>
  <object id="159" name="Wall_Car" x="69" y="261" width="54" height="54"/>
  <object id="160" name="Wall_Car" x="3077" y="517" width="54" height="54"/>
  <object id="161" name="Wall_Car" x="197" y="773" width="54" height="54"/>
  <object id="162" name="Wall_Car" x="325" y="837" width="54" height="54"/>
  <object id="163" name="Wall_Car" x="901" y="837" width="54" height="54"/>
  <object id="164" name="Wall_Car" x="1989" y="837" width="54" height="54"/>
  <object id="165" name="Wall_Car" x="2565" y="837" width="54" height="54"/>
  <object id="166" name="Wall_Car" x="69" y="901" width="54" height="54"/>
  <object id="167" name="Wall_Car" x="2373" y="965" width="54" height="54"/>
  <object id="168" name="Wall_Car" x="2309" y="1157" width="54" height="54"/>
  <object id="169" name="Wall_Car" x="5" y="1221" width="54" height="54"/>
  <object id="170" name="Wall_Car" x="3077" y="1285" width="54" height="54"/>
  <object id="171" name="Wall_Car" x="1541" y="1349" width="54" height="54"/>
  <object id="172" name="Wall_Car" x="69" y="1477" width="54" height="54"/>
  <object id="173" name="Wall_Car" x="837" y="1477" width="54" height="54"/>
  <object id="174" name="Wall_Car" x="325" y="1541" width="54" height="54"/>
  <object id="175" name="Wall_Car" x="2565" y="1541" width="54" height="54"/>
  <object id="176" name="Wall_Car" x="453" y="1605" width="54" height="54"/>
  <object id="177" name="Wall_Car" x="645" y="1605" width="54" height="54"/>
  <object id="178" name="Wall_Car" x="1733" y="1605" width="54" height="54"/>
  <object id="179" name="Wall_Car" x="2501" y="1605" width="54" height="54"/>
  <object id="180" name="Wall_Car" x="2309" y="1797" width="54" height="54"/>
  <object id="181" name="Wall_Car" x="69" y="1861" width="54" height="54"/>
  <object id="182" name="Wall_Car" x="2309" y="1861" width="54" height="54"/>
  <object id="183" name="Wall_Car" x="5" y="2117" width="54" height="54"/>
  <object id="184" name="Wall_Car" x="261" y="2309" width="54" height="54"/>
  <object id="185" name="Wall_Car" x="517" y="2309" width="54" height="54"/>
  <object id="186" name="Wall_Car" x="1413" y="2309" width="54" height="54"/>
  <object id="187" name="Wall_Car" x="389" y="2373" width="54" height="54"/>
  <object id="188" name="Wall_Car" x="3013" y="2373" width="54" height="54"/>
  <object id="189" name="Wall_Car" x="3525" y="2373" width="54" height="54"/>
  <object id="190" name="Wall_Car" x="2373" y="2437" width="54" height="54"/>
  <object id="191" name="Wall_Car" x="837" y="2885" width="54" height="54"/>
  <object id="192" name="Wall_Car" x="1349" y="3077" width="54" height="54"/>
  <object id="193" name="Wall_Car" x="1925" y="3077" width="54" height="54"/>
  <object id="194" name="Wall_Car" x="3205" y="3077" width="54" height="54"/>
  <object id="195" name="Wall_Car" x="133" y="3141" width="54" height="54"/>
  <object id="196" name="Wall_Car" x="3653" y="3141" width="54" height="54"/>
  <object id="197" name="Wall_Car" x="69" y="3525" width="54" height="54"/>
  <object id="198" name="Wall_Car" x="1605" y="3525" width="54" height="54"/>
  <object id="199" name="Wall_Car" x="69" y="3589" width="54" height="54"/>
  <object id="200" name="Wall_Car" x="773" y="3717" width="54" height="54"/>
  <object id="201" name="Wall_Car" x="1605" y="3717" width="54" height="54"/>
  <object id="202" name="Wall_Car" x="3077" y="3717" width="54" height="54"/>
 </objectgroup>
</map>