<?xml version="1.0" encoding="UTF-8"?>
<map version="1.10" tiledversion="1.11.2" orientation="orthogonal" renderorder="right-down" width="30" height="30" tilewidth="64" tileheight="64" infinite="0" nextlayerid="5" nextobjectid="54">
 <tileset firstgid="1" name="BaseTiles" tilewidth="64" tileheight="64" tilecount="2" columns="2">
  <image source="../images/BaseTiles.png" width="128" height="64"/>
 </tileset>
 <tileset firstgid="3" source="CityObjects.tsx"/>
 <layer id="1" name="Ground" width="30" height="30">
  <data encoding="csv">
2,2,2,2,2,2,2,2,2,2,2,2,2,2,2,2,2,2,2,2,2,2,2,2,2,2,2,2,2,2,
2,2,2,2,2,2,2,2,2,2,2,2,2,2,2,2,2,2,2,2,2,2,2,2,2,2,2,2,2,2,
2,2,1,1,1,1,1,1,1,1,1,1,2,2,1,1,1,1,1,1,1,1,1,1,2,2,1,1,1,1,
2,2,1,1,1,1,1,1,1,1,1,1,2,2,1,1,1,1,1,1,1,1,1,1,2,2,1,1,1,1,
2,2,1,1,1,1,1,1,1,1,1,1,2,2,1,1,1,1,1,1,1,1,1,1,2,2,1,1,1,1,
2,2,1,1,1,1,1,1,1,1,1,1,2,2,1,1,1,1,1,1,1,1,1,1,2,2,1,1,1,1,
2,2,1,1,1,1,1,1,1,1,1,1,2,2,1,1,1,1,1,1,1,1,1,1,2,2,1,1,1,1,
2,2,1,1,1,1,1,1,1,1,1,1,2,2,1,1,1,1,1,1,1,1,1,1,2,2,1,1,1,1,
2,2,1,1,1,1,1,1,1,1,1,1,2,2,1,1,1,1,1,1,1,1,1,1,2,2,1,1,1,1,
2,2,1,1,1,1,1,1,1,1,1,1,2,2,1,1,1,1,1,1,1,1,1,1,2,2,1,1,1,1,
2,2,1,1,1,1,1,1,1,1,1,1,2,2,1,1,1,1,1,1,1,1,1,1,2,2,1,1,1,1,
2,2,1,1,1,1,1,1,1,1,1,1,2,2,1,1,1,1,1,1,1,1,1,1,2,2,1,1,1,1,
2,2,2,2,2,2,2,2,2,2,2,2,2,2,2,2,2,2,2,2,2,2,2,2,2,2,2,2,2,2,
2,2,2,2,2,2,2,2,2,2,2,2,2,2,2,2,2,2,2,2,2,2,2,2,2,2,2,2,2,2,
2,2,1,1,1,1,1,1,1,1,1,1,2,2,1,1,1,1,1,1,1,1,1,1,2,2,1,1,1,1,
2,2,1,1,1,1,1,1,1,1,1,1,2,2,1,1,1,1,1,1,1,1,1,1,2,2,1,1,1,1,
2,2,1,1,1,1,1,1,1,1,1,1,2,2,1,1,1,1,1,1,1,1,1,1,2,2,1,1,1,1,
2,2,1,1,1,1,1,1,1,1,1,1,2,2,1,1,1,1,1,1,1,1,1,1,2,2,1,1,1,1,
2,2,1,1,1,1,1,1,1,1,1,1,2,2,1,1,1,1,1,1,1,1,1,1,2,2,1,1,1,1,
2,2,1,1,1,1,1,1,1,1,1,1,2,2,1,1,1,1,1,1,1,1,1,1,2,2,1,1,1,1,
2,2,1,1,1,1,1,1,1,1,1,1,2,2,1,1,1,1,1,1,1,1,1,1,2,2,1,1,1,1,
2,2,1,1,1,1,1,1,1,1,1,1,2,2,1,1,1,1,1,1,1,1,1,1,2,2,1,1,1,1,
2,2,1,1,1,1,1,1,1,1,1,1,2,2,1,1,1,1,1,1,1,1,1,1,2,2,1,1,1,1,
2,2,1,1,1,1,1,1,1,1,1,1,2,2,1,1,1,1,1,1,1,1,1,1,2,2,1,1,1,1,
2,2,2,2,2,2,2,2,2,2,2,2,2,2,2,2,2,2,2,2,2,2,2,2,2,2,2,2,2,2,
2,2,2,2,2,2,2,2,2,2,2,2,2,2,2,2,2,2,2,2,2,2,2,2,2,2,2,2,2,2,
2,2,1,1,1,1,1,1,1,1,1,1,2,2,1,1,1,1,1,1,1,1,1,1,2,2,1,1,1,1,
2,2,1,1,1,1,1,1,1,1,1,1,2,2,1,1,1,1,1,1,1,1,1,1,2,2,1,1,1,1,
2,2,1,1,1,1,1,1,1,1,1,1,2,2,1,1,1,1,1,1,1,1,1,1,2,2,1,1,1,1,
2,2,1,1,1,1,1,1,1,1,1,1,2,2,1,1,1,1,1,1,1,1,1,1,2,2,1,1,1,1
</data>
 </layer>
 <layer id="2" name="Props" width="30" height="30">
  <data encoding="csv">
0,0,0,0,0,0,0,0,0,0,0,0,0,0,0,0,0,0,0,0,0,0,0,0,0,0,0,0,0,0,
0,0,0,0,0,0,14,0,0,0,0,0,0,0,0,0,0,0,0,0,14,0,0,0,0,0,0,0,0,0,
0,0,0,0,0,0,0,0,0,0,0,0,0,0,13,0,0,0,0,0,0,0,0,0,0,0,0,0,0,0,
0,0,21,0,0,0,21,0,0,0,17,0,0,0,0,0,0,0,20,0,0,0,24,0,0,0,19,0,0,0,
0,0,0,0,0,0,0,0,0,0,0,0,0,0,0,0,0,0,0,0,0,0,0,0,16,0,0,0,0,0,
0,0,0,0,0,0,0,0,0,0,0,0,0,0,0,0,0,0,0,0,0,0,0,0,16,0,0,0,0,0,
0,0,0,0,0,0,12,0,0,0,0,0,0,0,0,0,0,0,0,0,0,0,12,0,0,0,13,0,0,0,
0,0,0,0,0,0,0,0,0,0,0,0,0,0,25,0,0,0,0,0,0,0,0,0,0,0,0,0,0,0,
0,0,0,0,0,0,0,0,0,0,0,0,0,0,0,0,0,0,0,0,0,0,0,0,0,0,0,0,0,0,
0,0,0,0,0,0,0,0,0,0,0,0,0,0,0,0,0,0,0,0,0,0,0,0,0,16,0,0,0,0,
0,0,0,0,0,0,12,0,0,0,0,0,0,0,0,0,0,0,0,0,0,0,0,0,0,0,13,0,0,0,
0,0,0,0,0,0,0,0,0,0,31,0,0,0,30,0,0,0,0,0,0,0,28,0,0,0,0,0,0,0,
0,0,14,0,0,0,0,0,15,0,0,0,0,0,16,16,0,0,0,0,0,0,0,0,0,0,0,0,0,0,
0,0,0,0,0,0,0,0,0,0,0,0,0,0,0,0,0,0,0,0,0,0,0,0,0,0,0,0,0,0,
0,0,12,0,0,0,0,0,0,0,0,0,0,0,0,0,0,0,0,0,0,0,0,0,0,0,0,0,0,0,
0,0,0,0,0,0,28,0,0,0,0,0,0,0,0,0,0,0,0,0,0,0,31,0,0,0,0,0,0,0,
0,0,0,0,0,0,0,0,0,0,0,0,0,0,0,0,0,0,0,0,0,0,0,0,0,0,0,0,0,0,
0,0,0,0,0,0,0,0,0,0,0,0,0,0,0,0,0,0,0,0,0,0,0,0,0,0,0,0,0,0,
0,0,0,0,0,0,12,0,0,0,0,0,0,0,0,0,0,0,0,0,0,0,0,0,0,0,6,0,0,0,
0,0,23,0,0,0,0,0,0,37,0,0,0,0,0,0,0,0,0,0,0,0,0,0,0,0,0,0,0,0,
0,16,0,0,0,0,0,0,0,0,0,0,0,0,0,0,0,0,0,0,0,0,0,0,15,0,0,0,0,0,
0,0,0,0,0,0,0,0,0,0,0,0,0,0,0,0,0,0,0,0,0,0,0,0,0,16,0,0,0,0,
0,0,0,0,0,0,0,0,0,0,13,0,0,0,13,0,0,0,0,0,0,0,0,0,0,0,0,0,0,0,
0,0,0,0,0,0,29,0,0,0,0,0,0,0,0,0,0,0,18,0,0,0,22,0,0,16,17,0,0,0,
0,0,16,0,0,0,0,0,0,16,0,0,0,0,0,0,0,0,0,0,0,0,0,0,0,0,0,0,16,0,
0,0,0,0,0,0,0,0,0,0,0,0,0,0,0,0,0,0,0,0,0,0,0,0,0,0,0,0,0,0,
0,0,0,0,0,0,4,0,0,0,0,0,0,0,6,0,0,0,4,0,0,0,0,0,0,0,0,0,0,0,
0,0,31,0,0,0,0,0,0,0,0,0,0,0,0,0,0,0,0,0,0,0,19,0,16,0,0,0,0,0,
0,0,0,0,0,0,0,0,0,0,0,0,0,16,0,0,0,0,0,0,0,0,0,0,0,0,0,0,0,0,
0,0,0,0,0,0,0,0,0,0,0,0,0,16,0,0,0,0,0,0,0,0,0,0,0,0,0,0,0,0
</data>
 </layer>
 <objectgroup id="3" name="Collisions">
  <object id="1" name="Wall_Parliament" x="596" y="788" width="728" height="472"/>
  <object id="2" name="Wall_buildingTiles_094" x="133" y="133" width="118" height="118"/>
  <object id="3" name="Wall_buildingTiles_094" x="389" y="133" width="118" height="118"/>
  <object id="4" name="Wall_buildingTiles_090" x="645" y="133" width="118" height="118"/>
  <object id="5" name="Wall_Prop" x="906" y="138" width="44" height="44"/>
  <object id="6" name="Wall_buildingTiles_093" x="1157" y="133" width="118" height="118"/>
  <object id="7" name="Wall_buildingTiles_097" x="1413" y="133" width="118" height="118"/>
  <object id="8" name="Wall_buildingTiles_092" x="1669" y="133" width="118" height="118"/>
  <object id="9" name="Wall_Prop" x="394" y="394" width="44" height="44"/>
  <object id="10" name="Wall_buildingTiles_098" x="901" y="389" width="118" height="118"/>
  <object id="11" name="Wall_Prop" x="1418" y="394" width="44" height="44"/>
  <object id="12" name="Wall_Prop" x="1674" y="394" width="44" height="44"/>
  <object id="13" name="Wall_Prop" x="394" y="650" width="44" height="44"/>
  <object id="14" name="Wall_buildingTiles_104" x="645" y="645" width="118" height="118"/>
  <object id="15" name="Wall_buildingTiles_103" x="901" y="645" width="118" height="118"/>
  <object id="16" name="Wall_buildingTiles_101" x="1413" y="645" width="118" height="118"/>
  <object id="17" name="Wall_Prop" x="1674" y="650" width="44" height="44"/>
  <object id="18" name="Wall_Prop" x="138" y="906" width="44" height="44"/>
  <object id="19" name="Wall_buildingTiles_101" x="389" y="901" width="118" height="118"/>
  <object id="20" name="Wall_buildingTiles_104" x="1413" y="901" width="118" height="118"/>
  <object id="21" name="Wall_buildingTiles_096" x="133" y="1157" width="118" height="118"/>
  <object id="22" name="Wall_Prop" x="394" y="1162" width="44" height="44"/>
  <object id="23" name="Wall_Prop" x="1674" y="1162" width="44" height="44"/>
  <object id="24" name="Wall_buildingTiles_102" x="389" y="1413" width="118" height="118"/>
  <object id="25" name="Wall_Prop" x="650" y="1418" width="44" height="44"/>
  <object id="26" name="Wall_Prop" x="906" y="1418" width="44" height="44"/>
  <object id="27" name="Wall_buildingTiles_091" x="1157" y="1413" width="118" height="118"/>
  <object id="28" name="Wall_buildingTiles_095" x="1413" y="1413" width="118" height="118"/>
  <object id="29" name="Wall_buildingTiles_090" x="1669" y="1413" width="118" height="118"/>
  <object id="30" name="Wall_buildingTiles_104" x="133" y="1669" width="118" height="118"/>
  <object id="31" name="Wall_Prop" x="394" y="1674" width="44" height="44"/>
  <object id="32" name="Wall_Prop" x="906" y="1674" width="44" height="44"/>
  <object id="33" name="Wall_Prop" x="1162" y="1674" width="44" height="44"/>
  <object id="34" name="Wall_buildingTiles_092" x="1413" y="1669" width="118" height="118"/>
  <object id="35" name="Wall_Car" x="389" y="69" width="54" height="54"/>
  <object id="36" name="Wall_Car" x="1285" y="69" width="54" height="54"/>
  <object id="37" name="Wall_Car" x="1541" y="261" width="54" height="54"/>
  <object id="38" name="Wall_Car" x="1541" y="325" width="54" height="54"/>
  <object id="39" name="Wall_Car" x="1605" y="581" width="54" height="54"/>
  <object id="40" name="Wall_Car" x="133" y="773" width="54" height="54"/>
  <object id="41" name="Wall_Car" x="517" y="773" width="54" height="54"/>
  <object id="42" name="Wall_Car" x="901" y="773" width="54" height="54"/>
  <object id="43" name="Wall_Car" x="965" y="773" width="54" height="54"/>
  <object id="44" name="Wall_Car" x="69" y="1285" width="54" height="54"/>
  <object id="45" name="Wall_Car" x="1541" y="1285" width="54" height="54"/>
  <object id="46" name="Wall_Car" x="1605" y="1349" width="54" height="54"/>
  <object id="47" name="Wall_Car" x="1605" y="1477" width="54" height="54"/>
  <object id="48" name="Wall_Car" x="133" y="1541" width="54" height="54"/>
  <object id="49" name="Wall_Car" x="581" y="1541" width="54" height="54"/>
  <object id="50" name="Wall_Car" x="1797" y="1541" width="54" height="54"/>
  <object id="51" name="Wall_Car" x="1541" y="1733" width="54" height="54"/>
  <object id="52" name="Wall_Car" x="837" y="1797" width="54" height="54"/>
  <object id="53" name="Wall_Car" x="837" y="1861" width="54" height="54"/>
 </objectgroup>
</map>